X: 338
T: 339. Wer nur den lieben Gott la\sst walten
N: Derived from chor339.krn
C: Johann Sebastian Bach
%%abc-version 2.0
%%abcx-abcm2ps-target-version 5.9.1 (29 Sep 2008)
%%abc-creator hum2abc beta
%%abcx-conversion-date 2019/03/11 17:28:19
%%abc-edited-by Craig Stuart Sapp
%%humdrum-veritas 1105376695
%%humdrum-veritas-data 1785667614
%%
%%barnumbers 0
L: 1/4
M: C
%%staves [1 2 3 4]
V: 1 clef=treble
V: 2 clef=treble
V: 3 clef=treble-8
V: 4 clef=bass
K: C
[V:1] E [I:setbarnb 1]| 
[V:2] E | 
[V:3] c | 
[V:4] A,/G,/ | 
[V:1] ABcB | 
[V:2] E//D//FE//D// C/A=G/- | 
[V:3] c/B//A// ^G/e/e^d | 
[V:4] F,E,A,,B,, | 
[V:1] AB^G3/^F/ | 
[V:2] G/^F//E// F/F/ F/E/ =D/=C/ | 
[V:3] eBB3/A/ | 
[V:4] ^C,^D,E,2 | 
[V:1] !fermata!E=GG=F | 
[V:2] !fermata!B,E/D/^CD | 
[V:3] !fermata!^GEAA | 
[V:4] !fermata!E,^C,A,,D, | 
[V:1] EAA^G | 
[V:2] B,/=C/ D/E/^FE | 
[V:3] ^G/A/ B/c/ c/B/B | 
[V:4] D,/=C,/ F,/E,/^D,E, | 
[V:1] !fermata!A3 :|]  
[V:2] !fermata!E3 :|]  
[V:3] !fermata!^c3 :|]  
[V:4] !fermata!A,,3 :|]  
[V:1] B [I:setbarnb 6]| 
[V:2] ^G | 
[V:3] e | 
[V:4] E, | 
[V:1] cdee | 
[V:2] ABc/=G/ c/_B/ | 
[V:3] e//c//fe//d// c/d/e | 
[V:4] A,=G,/F,/ E,/D,/C, | 
[V:1] dd!fermata!ce | 
[V:2] A=B!fermata!GG | 
[V:3] f3/e//d//!fermata!ec | 
[V:4] D,/E,//F,// G,/G,,/!fermata!C,C, | 
[V:1] dcBA/B/ | 
[V:2] F^F^GA | 
[V:3] c/B/ A/^G//A// E/d/ c/B/ | 
[V:4] D,^D,E,=F, | 
[V:1] cB!fermata!A |]  
[V:2] ^D/^F/ =F/E//=D//!fermata!^C |]  
[V:3] A3/^G/!fermata!E |]  
[V:4] ^F,/^D,/ E,/E,,/!fermata!A,, |]  



